X: 1
T: Flight of Fancy
C: Chris Newman
R: Jig
M: 6/8
L: 1/8
K: Gmaj
Z: ABC transcription by Verge Roller
r: 32
|: "G" GAB FGE | "G" DGA BAG | "Am" A/B/cA EAD | "D" FGA dAF |
"G" GAB FGE | "G" DGA BAG | "Am" A/B/cA EAD | "D" FAF "G" G3 :|
|: "G" DdB GDc | "D" AFD "G" B2 G | "C" E2 G "Am7" GAB | "Am" cdB "D" A2 B |
"C" cBc "D" ABG | "D" AFG "C" EFC | "G" DEF "Am" GAB | "D7" cAF "G" G3 :|
